apps/app.mento.org/public/tokens/USDT.svg

<svg width="40" height="40" viewBox="0 0 40 40" fill="none" xmlns="http://www.w3.org/2000/svg">
<path d="M39.3971 24.8381C36.726 35.5525 25.8741 42.0731 15.1584 39.4012C4.44722 36.7301 -2.07335 25.8775 0.598971 15.1639C3.26894 4.44838 14.1209 -2.07268 24.8332 0.598468C35.5481 3.26961 42.0686 14.1232 39.3971 24.8381Z" fill="#26A17B"/>
<path fill-rule="evenodd" clip-rule="evenodd" d="M22.5306 22.2674C22.3892 22.278 21.6586 22.3216 20.0287 22.3216C18.7324 22.3216 17.812 22.2827 17.4891 22.2674C12.4793 22.047 8.74001 21.1749 8.74001 20.1308C8.74001 19.0867 12.4793 18.2158 17.4891 17.9919V21.3989C17.8167 21.4224 18.7548 21.4778 20.0511 21.4778C21.6067 21.4778 22.3857 21.413 22.5259 21.4V17.9942C27.5251 18.217 31.2561 19.089 31.2561 20.1308C31.2561 21.1726 27.5262 22.0447 22.5259 22.2662L22.5306 22.2674ZM22.5306 17.6419V14.5931H29.5073V9.94399H10.5124V14.5931H17.4879V17.6407C11.8182 17.9011 7.55445 19.0242 7.55445 20.37C7.55445 21.7159 11.8182 22.8378 17.4879 23.0994V32.869H22.5295V23.0959C28.1862 22.8354 32.4429 21.7135 32.4429 20.3689C32.4429 19.0242 28.1897 17.9023 22.5295 17.6407L22.5306 17.6419Z" fill="white"/>
</svg>

<svg xmlns="http://www.w3.org/2000/svg" width="40" height="40" fill="none" viewBox="0 0 40 40"><path fill="#26A17B" d="M39.397 24.838c-2.671 10.715-13.523 17.235-24.239 14.563C4.448 36.731-2.073 25.877.6 15.164 3.269 4.448 14.121-2.073 24.833.598 35.548 3.27 42.07 14.123 39.397 24.838"/><path fill="#fff" fill-rule="evenodd" d="M22.53 22.267c-.14.011-.871.055-2.501.055-1.297 0-2.217-.04-2.54-.055-5.01-.22-8.749-1.092-8.749-2.136s3.74-1.915 8.75-2.14V21.4c.327.023 1.265.079 2.561.079 1.556 0 2.335-.065 2.475-.078v-3.406c5 .223 8.73 1.095 8.73 2.137s-3.73 1.914-8.73 2.135zm0-4.625v-3.049h6.977V9.944H10.512v4.65h6.976v3.047c-5.67.26-9.934 1.383-9.934 2.729s4.264 2.468 9.934 2.73v9.769h5.041v-9.773c5.657-.26 9.914-1.383 9.914-2.727 0-1.345-4.253-2.467-9.913-2.728" clip-rule="evenodd"/></svg>
